assets/icons/enter.svg

<svg width="36" height="36" viewBox="0 0 36 36" fill="none" xmlns="http://www.w3.org/2000/svg">
<circle cx="18" cy="18" r="18" fill="#B791F5"/>
<path d="M18 7C15.243 7 13 9.243 13 12V15H12C11.4696 15 10.9609 15.2107 10.5858 15.5858C10.2107 15.9609 10 16.4696 10 17V25C10 25.5304 10.2107 26.0391 10.5858 26.4142C10.9609 26.7893 11.4696 27 12 27H24C24.5304 27 25.0391 26.7893 25.4142 26.4142C25.7893 26.0391 26 25.5304 26 25V17C26 16.4696 25.7893 15.9609 25.4142 15.5858C25.0391 15.2107 24.5304 15 24 15H23V12C23 9.243 20.757 7 18 7ZM15 12C15 10.346 16.346 9 18 9C19.654 9 21 10.346 21 12V15H15V12ZM19 22.723V25H17V22.723C16.6504 22.5228 16.3697 22.2213 16.1948 21.8584C16.02 21.4954 15.9593 21.0879 16.0207 20.6898C16.0821 20.2916 16.2627 19.9214 16.5388 19.6279C16.8148 19.3345 17.1733 19.1316 17.567 19.046C17.8594 18.9813 18.1626 18.9832 18.4542 19.0513C18.7459 19.1194 19.0185 19.2521 19.252 19.4397C19.4855 19.6272 19.6739 19.8647 19.8034 20.1348C19.9328 20.4049 20 20.7005 20 21C19.9994 21.3497 19.9067 21.6932 19.7311 21.9956C19.5556 22.2981 19.3034 22.549 19 22.723Z" fill="white"/>
</svg>

<svg width="36" height="36" viewBox="0 0 36 36" fill="none" xmlns="http://www.w3.org/2000/svg"><circle cx="18" cy="18" r="18" fill="#B791F5"/><path d="M18 7c-2.757 0-5 2.243-5 5v3h-1a2 2 0 00-2 2v8a2 2 0 002 2h12a2 2 0 002-2v-8a2 2 0 00-2-2h-1v-3c0-2.757-2.243-5-5-5zm-3 5c0-1.654 1.346-3 3-3s3 1.346 3 3v3h-6v-3zm4 10.723V25h-2v-2.277a1.994 1.994 0 011.454-3.672 2 2 0 011.277 2.945 1.99 1.99 0 01-.731.727z" fill="#fff"/></svg>
